X:238
T: Bards Legacy (The)
N: O'Farrell's Pocket Companion v.3 (Sky ed. p.114)
N: "Irish"
M: 6/8
L: 1/8
R: jig
Q: 320
K: G
G2G GDB,| d2e dBG| G2A BAB| E2F G3 :|
GBd g2g| fed edB| GBd g2g| fed e2f|
g2g fdB| e2e dBG| G2A BAB| E2F G3 ||
